gama.ui.shared/icons_svg/dark/views/tabs/view.problems.svg

<?xml version="1.0" encoding="UTF-8" standalone="no"?>
<!DOCTYPE svg PUBLIC "-//W3C//DTD SVG 1.1//EN" "http://www.w3.org/Graphics/SVG/1.1/DTD/svg11.dtd">
<svg xmlns="http://www.w3.org/2000/svg" xmlns:dc="http://purl.org/dc/elements/1.1/" version="1.1" xmlns:xl="http://www.w3.org/1999/xlink" viewBox="-495.35776 -2973.7685 24.75 24.75" width="24.75" height="24.75">
  <defs/>
  <g id="SOURCES" fill="none" stroke="none" stroke-dasharray="none" fill-opacity="1" stroke-opacity="1">
    <title>SOURCES</title>
    <g id="SOURCES_Dark">
      <title>Dark</title>
      <g id="Group_12703">
        <g id="Graphic_11024">
          <path d="M -482.98276 -2954.3935 C -486.84676 -2954.3935 -489.98276 -2957.5295 -489.98276 -2961.3935 C -489.98276 -2965.2575 -486.84676 -2968.3935 -482.98276 -2968.3935 C -479.11876 -2968.3935 -475.98276 -2965.2575 -475.98276 -2961.3935 C -475.98276 -2957.5295 -479.11876 -2954.3935 -482.98276 -2954.3935 Z M -482.98276 -2955.0935 C -479.50376 -2955.0935 -476.68276 -2957.9145 -476.68276 -2961.3935 C -476.68276 -2964.8725 -479.50376 -2967.6935 -482.98276 -2967.6935 C -486.46176 -2967.6935 -489.28276 -2964.8725 -489.28276 -2961.3935 C -489.28276 -2957.9145 -486.46176 -2955.0935 -482.98276 -2955.0935 Z M -480.77776 -2963.3885 C -480.63776 -2963.5285 -480.42076 -2963.5285 -480.28076 -2963.3885 C -480.14076 -2963.2485 -480.14076 -2963.0315 -480.28076 -2962.8915 L -483.78076 -2959.3915 C -483.92076 -2959.2515 -484.13776 -2959.2515 -484.27776 -2959.3915 L -485.67776 -2960.7915 C -485.81776 -2960.9315 -485.81776 -2961.1485 -485.67776 -2961.2885 C -485.53776 -2961.4285 -485.32076 -2961.4285 -485.18076 -2961.2885 L -484.02576 -2960.1335 L -480.77076 -2963.3885 Z" fill="#c0e0ff"/>
        </g>
        <g id="Graphic_12686"/>
      </g>
    </g>
  </g>
</svg>

<svg height="24.75" viewBox="-495.358 -2973.769 24.75 24.75" width="24.75" xmlns="http://www.w3.org/2000/svg"><path d="m-482.98276-2954.3935c-3.864 0-7-3.136-7-7s3.136-7 7-7 7 3.136 7 7-3.136 7-7 7zm0-.7c3.479 0 6.3-2.821 6.3-6.3s-2.821-6.3-6.3-6.3-6.3 2.821-6.3 6.3 2.821 6.3 6.3 6.3zm2.205-8.295c.14-.14.357-.14.497 0s.14.357 0 .497l-3.5 3.5c-.14.14-.357.14-.497 0l-1.4-1.4c-.14-.14-.14-.357 0-.497s.357-.14.497 0l1.155 1.155 3.255-3.255z" fill="#c0e0ff"/></svg>
